svgs/regular/arrows-left-right.svg

<svg xmlns="http://www.w3.org/2000/svg" viewBox="0 0 512 512"><!--! Font Awesome Pro 6.0.0-alpha3 by @fontawesome - https://fontawesome.com License - https://fontawesome.com/license (Commercial License) --><path d="M512 256c0 6.688-2.812 13.09-7.719 17.62l-104 96C395.7 373.9 389.8 376 384 376c-6.469 0-12.91-2.594-17.62-7.719c-9-9.75-8.406-24.94 1.344-33.91L426.6 280H85.38l58.91 54.38c9.75 8.969 10.34 24.16 1.344 33.91C140.9 373.4 134.5 376 128 376c-5.812 0-11.66-2.094-16.28-6.375l-104-96C2.813 269.1 0 262.7 0 256s2.812-13.09 7.719-17.62l104-96C121.5 133.3 136.7 134 145.6 143.7c9 9.75 8.406 24.94-1.344 33.91L85.38 232h341.3l-58.91-54.38c-9.75-8.969-10.34-24.16-1.344-33.91C375.3 134 390.5 133.3 400.3 142.4l104 96C509.2 242.9 512 249.3 512 256z"/></svg>

<svg xmlns="http://www.w3.org/2000/svg" viewBox="0 0 512 512"><!-- Font Awesome Pro 6.0.0-alpha2 by @fontawesome - https://fontawesome.com License - https://fontawesome.com/license (Commercial License) --><path d="M512 256C512 262.688 509.188 269.094 504.281 273.625L400.281 369.625C395.656 373.906 389.812 376 384 376C377.531 376 371.094 373.406 366.375 368.281C357.375 358.531 357.969 343.344 367.719 334.375L426.625 280H85.375L144.281 334.375C154.031 343.344 154.625 358.531 145.625 368.281C140.906 373.406 134.469 376 128 376C122.188 376 116.344 373.906 111.719 369.625L7.719 273.625C2.812 269.094 0 262.688 0 256S2.812 242.906 7.719 238.375L111.719 142.375C121.5 133.344 136.688 134 145.625 143.719C154.625 153.469 154.031 168.656 144.281 177.625L85.375 232H426.625L367.719 177.625C357.969 168.656 357.375 153.469 366.375 143.719C375.344 134 390.5 133.344 400.281 142.375L504.281 238.375C509.188 242.906 512 249.312 512 256Z"/></svg>
